icons/white/koho.svg

<?xml version="1.0" encoding="UTF-8"?><svg id="a" xmlns="http://www.w3.org/2000/svg" viewBox="0 0 48 48"><defs><style>.b{fill:none;stroke:#fff;stroke-linecap:round;stroke-linejoin:round;}</style></defs><path class="b" d="M38.5001,5.5H9.5001c-2.2091,0-4,1.7909-4,4v29c0,2.2091,1.7909,4,4,4h29c2.2091,0,4-1.7909,4-4V9.5c0-2.2091-1.7909-4-4-4Z"/><path class="b" d="M9.1,20v8M13.4,28l-3.3-4,3.3-4M10.1,24h-1"/><path class="b" d="M16.6,25.4c0,1.5,1.2,2.7,2.6,2.7,1.5,0,2.7-1.2,2.7-2.7v-2.7c0-1.5-1.2-2.7-2.7-2.7s-2.6,1.2-2.6,2.7v2.7ZM33.6,25.4c0,1.5,1.2,2.7,2.6,2.7,1.5,0,2.7-1.2,2.7-2.7v-2.7c0-1.5-1.2-2.7-2.7-2.7s-2.6,1.2-2.6,2.7v2.7Z"/><path class="b" d="M25.1,20v8M30.4,20v8M25.1,24h5.3"/><path class="b" d="M19.25,5.636v36.754"/></svg>

<svg xmlns="http://www.w3.org/2000/svg" viewBox="0 0 48 48"><defs><style>.a{fill:none;stroke:#fff;stroke-linecap:round;stroke-linejoin:round;}</style></defs><path class="a" d="M40.5,5.5H7.5a2,2,0,0,0-2,2v33a2,2,0,0,0,2,2h33a2,2,0,0,0,2-2V7.5A2,2,0,0,0,40.5,5.5Z"/><path class="a" d="M9.1,20v8m4.3,0-3.3-4,3.3-4m-3.3,4h-1"/><path class="a" d="M16.6,25.4a2.65,2.65,0,1,0,5.3,0V22.7A2.6888,2.6888,0,0,0,19.2,20a2.6057,2.6057,0,0,0-2.6,2.7Zm17,0a2.65,2.65,0,1,0,5.3,0V22.7A2.6888,2.6888,0,0,0,36.2,20a2.6057,2.6057,0,0,0-2.6,2.7Z"/><path class="a" d="M25.1,20v8m5.3-8v8m-5.3-4h5.3"/><path class="a" d="M19.25,5.636V42.39"/></svg>
